X: 935
T: Gülizar Taksim
C: Tanburî Cemil Bey
O: Turkey
F: http://compmusic.upf.edu/node/140
N: gulizar--taksim--serbest----tanburi_cemil_bey
N: makam= gulizar
N: form= taksim
N: usul= serbest = 0/1
M: 0/1
L: 1/16
K: C _2/4B ^3/4f  
Q: 1/4=60
%%MIDI tuningsystem comma53
A4 g2 ^f f g2 a2 f2 g f2 g g g f g f g2 z4 e g2  | \
w:   | 
^f g2 f g/ a/ g f g f g a =b b a ^g f  | 
w:   | 
e2 e4 e3 e a ^g a =b c' b  | a ^g ^1/4f e d2 e f z e d e4 =g  | 
w:   |   | 
g ^f ^1/4e f3 e f2 f4 d =e d  | e ^f g a _1/4b g a f g e f d4 d3 d c' c' c' b b a a a a g f2 f  | 
w:   |   | 
e e e e d d2 g ^f a f2 e e3  | d e e ^f g a _1/4b c' a b/ a/ g f g a =b g  | 
w:   |   | 
a ^f g g g g g4 g4 g4 g4 z4 g g f g f g  | \
w:   | 
a g =b2 a a a a4 g4 ^f4 e4 d4 e4 d4 e ^1/4f e f d4 d3/2 f/ g3/2 f/ a3/4 _1/4b1/4  | 
w:   | 
a/ g3/4 a4 e2 e2 d4 d3/2 ^f/ g3/2 f/ a _1/4b/ a/ g a =b a g/ f/ g e4 f2 e d4 d2 e2 c2 d2 d2 _1/4B2 c2 c2 B2 B2 A4 z A4 A2 A g2 g f e f g a b c' a2 b a a8 a8 a8 a8 a8 a4 b b2 a b2 a g f g e f2 e f2 e d e e d2 d4 ^c d e f g a f g g2 z2 g f g a a g f e e2 d e2 e2 d2 d2 d e2 e3 d d/ e/ d/ e/ d/ e/ =c2 d/ e/ d/ e/ d/ e/ e2 e/ f/ e/ f/ e/ f/ d2 g2 f g2 f g a a2 g f g2 e2 d2 e2 d2 e2 c2 d2 d2 c2 d2 e2 d2 g2 f2 e2 e d2 d c2 B2 c2 B2 e2 d2 c2 e2 d2 c4 z4 z4 z4 c2 G2 c2 d2 e2 e2 e3 e e3 e d3 e e3 e3/2 e2 f2 e2 f2 e2 f2 e2 e e d e e d c c B A4 c G c d e d e f g e f d e f e d d g g f e d d2 d e4 c d B c4 c G c B A4 e2 d2 c2 d2 B2 c2 B2 A2 A4 A4 A4 A4 A4 A4 A2 g2 f2 g2 a2 b2 a2 g2 f2 f2 e2 e2 d2 d2 B2 c B c d e e d c B3 B B A2 A G A2 A4 A4 z8 z2 d d e f g a _1/4b d' c' z4 z4 z4 c' c' b b z a a2 e' d' c' b a2 a a g f2 f e f e f g a a g f e d2 e f g a b c' a2 c'2 b a g f g a b g b a2 a8 a8 f g/ f/ g e f/ e/ f d e/ d/ e c d/ c/ d B c/ B/ c d3 c g3 g g2 f g2 a2 b2 c'/ c'/ a2 e'2 d'2 c'2 b2 a2 g2 f2 e2 f2 g2 a3 g f e d2 e2 d d d/ e/ d/ c/ d z D4 z4 A3 A g2 f2 g2 a2 g2 f2 a2 g2 a2 g2 f2 g2 f2 g2 a2 =b2 a2 g2 f2 g2 e3 e d4 A2 B2 A2 B2 A2 e2 e4 e4 e4 e4 e4 e4 d z g f f g e e e d e2 d e2 d g4 _1/4b2 g4 b2 g4 b2 g2 a2 g2 g2 f2 e e e d z d c d e e2 g =f e d d c B c d B c z c B c d e d2 z e2 d c2 c G c d c2 d2 c B2 B2 A B A B c B A G A2 G2 A2 B2 A2 c2 c2 B2 c2 B2 A2 A4 A4 A4 A4 z4 g g ^f g a a g f e d2 d/ c B A/ B2 c d2 c B A2 c4 c c B4 A B A G ^F G A G2 d d c B B A A4 |
w:   | 


